X: 28824
T: My Pretty Fair Maid
R: jig
M: 6/8
K: Gmajor
dc|B2 d cAA|BGG AFD|B2 d cAA|BGG Gdc|
B2 d cAA|BGG AFD|Bcd cAA|BGG G||
ba|gag fed|efg dBG|gag fed|efg dec|
B2 d cAA|BGG AFD|B2 d cAA|BGG G||

